X: 7971
T: Congress, The
R: reel
M: 4/4
K: Adorian
|:eAAG A2 B/c/d|eaaf gedB|e~A3 e~A3|B~G3 G2B/c/d|
eAAG A2 B/c/d|eaaf gedB|cBcd eged|c/B/AB/A/G A2 B/c/d:|
|:eaa^g a3g|eaag egdg|e/f/gdg e/f/gdg|eaaf gedB|
eaa^g a3g|eaaf gedB|c2cd e2ed|c/B/AB/A/G A2 B/c/d:|

